images/icons/pinterest.svg

<svg width="62" height="64" viewBox="0 0 62 64" fill="none" xmlns="http://www.w3.org/2000/svg">
<path d="M62 32C62 49.125 48.125 63 31 63C27.8 63 24.725 62.5125 21.825 61.6125C23.0875 59.55 24.975 56.175 25.675 53.4875C26.05 52.0375 27.6 46.1125 27.6 46.1125C28.6125 48.0375 31.5625 49.675 34.7 49.675C44.05 49.675 50.7875 41.075 50.7875 30.3875C50.7875 20.15 42.425 12.4875 31.675 12.4875C18.3 12.4875 11.1875 21.4625 11.1875 31.25C11.1875 35.8 13.6125 41.4625 17.475 43.2625C18.0625 43.5375 18.375 43.4125 18.5125 42.85C18.6125 42.425 19.1375 40.3125 19.375 39.3375C19.45 39.025 19.4125 38.75 19.1625 38.45C17.9 36.8875 16.875 34.0375 16.875 31.375C16.875 24.5375 22.05 17.925 30.875 17.925C38.4875 17.925 43.825 23.1125 43.825 30.5375C43.825 38.925 39.5875 44.7375 34.075 44.7375C31.0375 44.7375 28.75 42.225 29.4875 39.1375C30.3625 35.45 32.05 31.475 32.05 28.8125C32.05 26.4375 30.775 24.45 28.125 24.45C25.0125 24.45 22.5125 27.6625 22.5125 31.975C22.5125 34.725 23.4375 36.575 23.4375 36.575C23.4375 36.575 20.375 49.55 19.8125 51.975C19.1875 54.65 19.4375 58.425 19.7 60.875C8.175 56.3625 0 45.1375 0 32C0 14.875 13.875 1 31 1C48.125 1 62 14.875 62 32Z" fill="black"/>
</svg>

<svg width="62" height="64" viewBox="0 0 62 64" fill="none" xmlns="http://www.w3.org/2000/svg"><path d="M62 32c0 17.125-13.875 31-31 31-3.2 0-6.275-.487-9.175-1.388 1.262-2.062 3.15-5.437 3.85-8.125.375-1.45 1.925-7.375 1.925-7.375 1.012 1.925 3.962 3.563 7.1 3.563 9.35 0 16.087-8.6 16.087-19.287 0-10.238-8.362-17.9-19.112-17.9-13.375 0-20.488 8.974-20.488 18.762 0 4.55 2.426 10.212 6.288 12.013.587.275.9.15 1.037-.413.1-.425.625-2.538.863-3.513.075-.312.038-.587-.212-.887-1.263-1.563-2.288-4.413-2.288-7.075 0-6.837 5.175-13.45 14-13.45 7.612 0 12.95 5.188 12.95 12.613 0 8.387-4.238 14.2-9.75 14.2-3.038 0-5.325-2.513-4.588-5.6.876-3.688 2.563-7.663 2.563-10.325 0-2.375-1.275-4.363-3.925-4.363-3.113 0-5.613 3.213-5.613 7.525 0 2.75.925 4.6.925 4.6s-3.062 12.975-3.625 15.4c-.625 2.675-.375 6.45-.112 8.9C8.175 56.362 0 45.138 0 32 0 14.875 13.875 1 31 1s31 13.875 31 31Z" fill="#000"/></svg>
